; generated by PrusaSlicer 2.8.1+win64 on 2024-11-10 at 22:49:05 UTC


;
;
; 

; external perimeters extrusion width = 0.45mm
; perimeters extrusion width = 0.45mm
; infill extrusion width = 0.45mm
; solid infill extrusion width = 0.45mm
; top infill extrusion width = 0.40mm
; support material extrusion width = 0.35mm
; first layer extrusion width = 0.42mm

M73 P0 R30
M73 Q0 S30
M201 X1000 Y1000 Z200 E5000 ; sets maximum accelerations, mm/sec^2
M203 X200 Y200 Z12 E120 ; sets maximum feedrates, mm / sec
M204 S1250 T1250 ; sets acceleration (S) and retract acceleration (R), mm/sec^2
M205 X8.00 Y8.00 Z0.40 E4.50 ; sets the jerk limits, mm/sec
M205 S0 T0 ; sets the minimum extruding and travel feed rate, mm/sec

; printing object Motor Bracket Insert for N20 coaxial with servo.STL id:0 copy 0
; stop printing object Motor Bracket Insert for N20 coaxial with servo.STL id:0 copy 0

;TYPE:Custom
M862.3 P "MK3S" ; printer model check
M862.1 P0.4 ; nozzle diameter check
M115 U3.14.0 ; tell printer latest fw version
G90 ; use absolute coordinates
M83 ; extruder relative mode
M104 S215 ; set extruder temp
M140 S60 ; set bed temp
M190 S60 ; wait for bed temp
M109 S215 ; wait for extruder temp
G28 W ; home all without mesh bed level
G80 X101.778 Y81.5819 W69.3542 H36.5542 ; mesh bed levelling

G1 Z0.2 F720
G1 Y-3 F1000 ; go outside print area
G92 E0
G1 X60 E9 F1000 ; intro line
G1 X100 E12.5 F1000 ; intro line
M73 P0 R29

G92 E0
M221 S95

; Don't change E values below. Excessive value can damage the printer.
M907 E430 ; set extruder motor current
G21 ; set units to millimeters
G90 ; use absolute coordinates
M83 ; use relative distances for extrusion

M900 K0.05 ; Filament gcode LA 1.5
M900 K30 ; Filament gcode LA 1.0




M107
;LAYER_CHANGE
;Z:0.2
;HEIGHT:0.2
G1 E-.8 F2100
G1 Z.6 F720
G1 X102.607 Y85.399 F10800
G1 Z.2 F720
G1 E.8 F2100
M204 S800
;TYPE:Skirt/Brim
;WIDTH:0.42
G1 F1200
G1 X105.595 Y82.411 E.13249
G1 X107.142 Y81.77 E.0525
G1 X161.886 Y81.77 E1.71646
G1 X162.724 Y81.937 E.02679
M73 Q0 S29
G1 X164.598 Y82.713 E.0636
G1 X165.308 Y83.188 E.02678
G1 X169.526 Y87.405 E.18701
G1 X170 Y88.115 E.02677
G1 X170.777 Y89.99 E.06364
G1 X170.943 Y90.827 E.02675
G1 X170.943 Y108.891 E.56638
G1 X170.777 Y109.728 E.02675
G1 X170 Y111.603 E.06364
G1 X169.526 Y112.313 E.02677
G1 X165.308 Y116.53 E.18701
G1 X164.598 Y117.004 E.02677
G1 X162.724 Y117.781 E.06361
G1 X161.886 Y117.947 E.02679
G1 X107.142 Y117.947 E1.71646
G1 X105.595 Y117.306 E.0525
G1 X102.607 Y114.319 E.13247
G1 X101.966 Y112.771 E.05253
G1 X101.966 Y86.946 E.80972
G1 X102.584 Y85.454 E.05063
M204 S1000
;WIPE_START
G1 F8640
G1 X102.607 Y85.399 E-.01377
G1 X105.014 Y82.992 E-.78623
;WIPE_END
G1 Z.6 F720
G1 X105.072 Y86.693 F10800
G1 Z.2 F720
G1 E.8 F2100
M204 S800
G1 F1200
G1 X105.214 Y86.409 E.00996
G1 X106.165 Y85.364 E.0443
G1 X106.937 Y84.817 E.02967
G1 X108.816 Y84.245 E.06158
G1 X161.21 Y84.249 E1.64278
G1 X162.604 Y84.567 E.04483
M73 P1 R29
M73 Q1 S29
G1 X163.855 Y85.278 E.04512
G1 X167.262 Y88.642 E.15012
G1 X168.098 Y89.99 E.04973
G1 X168.469 Y91.53 E.04967
G1 X168.341 Y109.029 E.54868
G1 X167.914 Y110.123 E.03682
G1 X167.239 Y111.099 E.03721
G1 X164.09 Y114.248 E.13963
G1 X163.153 Y114.906 E.0359
G1 X161.219 Y115.472 E.06318
G1 X108.837 Y115.472 E1.6424
G1 X107.525 Y115.158 E.0423
G1 X106.604 Y114.699 E.03226
G1 X105.56 Y113.749 E.04426
G1 X105.013 Y112.977 E.02967
G1 X104.441 Y111.098 E.06158
G1 X104.441 Y88.641 E.70412
G1 X104.756 Y87.329 E.04231
G1 X105.046 Y86.747 E.02039
M204 S1000
G1 X105.046 Y86.747 F10800
G1 X105.381 Y86.916
M204 S800
G1 F1200
G1 X105.539 Y86.602 E.01102
G1 X106.428 Y85.635 E.04119
G1 X107.128 Y85.143 E.02683
G1 X108.844 Y84.623 E.05622
G1 X161.189 Y84.626 E1.64124
G1 X162.491 Y84.928 E.04191
G1 X163.645 Y85.592 E.04174
G1 X166.981 Y88.894 E.14717
G1 X167.739 Y90.109 E.0449
G1 X168.092 Y91.551 E.04655
G1 X167.99 Y108.842 E.54216
G1 X167.572 Y109.964 E.03754
G1 X166.961 Y110.844 E.03359
G1 X163.835 Y113.969 E.13859
G1 X162.963 Y114.58 E.03338
G1 X161.192 Y115.095 E.05783
G1 X108.86 Y115.095 E1.64083
G1 X107.636 Y114.797 E.0395
G1 X106.798 Y114.375 E.02942
G1 X105.83 Y113.486 E.04121
G1 X105.339 Y112.785 E.02683
G1 X104.818 Y111.07 E.0562
G1 X104.818 Y88.664 E.70252
G1 X105.117 Y87.44 E.03951
G1 X105.354 Y86.969 E.01653
M204 S1000
G1 X105.354 Y86.969 F10800
G1 X105.688 Y87.14
M204 S800
G1 F1200
G1 X105.862 Y86.798 E.01203
G1 X106.69 Y85.907 E.03814
G1 X107.319 Y85.47 E.02401
G1 X108.872 Y85 E.05087
G1 X161.166 Y85.003 E1.63964
G1 X162.376 Y85.288 E.03898
M73 P2 R29
M73 Q2 S29
G1 X163.434 Y85.905 E.0384
G1 X166.7 Y89.146 E.14427
G1 X167.403 Y90.282 E.04189
G1 X167.715 Y91.572 E.04161
G1 X167.607 Y108.854 E.54188
G1 X167.229 Y109.804 E.03206
G1 X166.682 Y110.589 E.03
G1 X163.581 Y113.691 E.13753
G1 X162.773 Y114.252 E.03084
G1 X161.166 Y114.718 E.05246
G1 X108.883 Y114.718 E1.6393
G1 X107.748 Y114.436 E.03667
G1 X106.993 Y114.051 E.02657
G1 X106.103 Y113.224 E.03809
G1 X105.666 Y112.595 E.02401
G1 X105.195 Y111.042 E.05088
G1 X105.195 Y88.687 E.70093
G1 X105.477 Y87.552 E.03667
G1 X105.661 Y87.193 E.01265
M204 S1000
G1 X105.661 Y87.193 F10800
G1 X105.993 Y87.365
M204 S800
G1 F1200
G1 X106.185 Y86.995 E.01307
G1 X106.95 Y86.18 E.03505
G1 X107.508 Y85.797 E.02122
G1 X108.899 Y85.377 E.04556
G1 X161.145 Y85.38 E1.63814
G1 X162.211 Y85.629 E.03432
G1 X163.223 Y86.219 E.03673
G1 X166.418 Y89.398 E.14132
G1 X167.044 Y90.402 E.0371
G1 X167.337 Y91.593 E.03846
G1 X167.236 Y108.766 E.53846
G1 X166.906 Y109.608 E.02836
G1 X166.404 Y110.335 E.0277
G1 X163.326 Y113.412 E.13646
G1 X162.584 Y113.924 E.02827
G1 X161.139 Y114.341 E.04716
G1 X108.907 Y114.341 E1.6377
G1 X107.863 Y114.076 E.03377
G1 X107.191 Y113.729 E.02371
G1 X106.376 Y112.964 E.03505
G1 X105.993 Y112.406 E.02122
G1 X105.572 Y111.014 E.0456
G1 X105.572 Y88.711 E.69929
G1 X105.837 Y87.667 E.03377
G1 X105.966 Y87.418 E.00879
M204 S1000
G1 X105.966 Y87.418 F10800
G1 X106.297 Y87.592
M204 S800
G1 F1200
G1 X106.506 Y87.194 E.01409
G1 X107.208 Y86.456 E.03194
G1 X107.695 Y86.126 E.01844
G1 X108.927 Y85.754 E.04035
G1 X161.123 Y85.757 E1.63657
G1 X162.095 Y85.988 E.03133
M73 P3 R29
M73 Q3 S29
G1 X163.01 Y86.531 E.03336
G1 X166.136 Y89.649 E.13843
G1 X166.707 Y90.574 E.03408
G1 X166.96 Y91.614 E.03356
G1 X166.872 Y108.663 E.53457
G1 X166.583 Y109.413 E.0252
G1 X166.125 Y110.08 E.02537
G1 X163.072 Y113.133 E.13538
G1 X162.396 Y113.596 E.02569
G1 X161.113 Y113.964 E.04185
G1 X108.932 Y113.964 E1.6361
G1 X107.979 Y113.717 E.03087
G1 X107.39 Y113.408 E.02085
G1 X106.652 Y112.705 E.03196
G1 X106.321 Y112.219 E.01844
G1 X105.95 Y110.987 E.04034
G1 X105.95 Y88.736 E.69766
G1 X106.196 Y87.784 E.03083
G1 X106.269 Y87.645 E.00492
M204 S1000
G1 X106.269 Y87.645 F10800
G1 X106.599 Y87.821
M204 S800
G1 F1200
G1 X106.825 Y87.396 E.01509
G1 X107.465 Y86.733 E.02889
G1 X107.881 Y86.455 E.01569
G1 X108.955 Y86.131 E.03517
G1 X161.1 Y86.134 E1.63497
G1 X161.977 Y86.348 E.0283
M73 P3 R28
G1 X162.795 Y86.841 E.02995
G1 X165.854 Y89.901 E.13566
G1 X166.349 Y90.694 E.02931
G1 X166.583 Y91.637 E.03046
G1 X166.508 Y108.562 E.53068
G1 X166.258 Y109.22 E.02207
G1 X165.845 Y109.827 E.02302
G1 X162.819 Y112.853 E.13418
G1 X162.21 Y113.267 E.02309
G1 X161.087 Y113.587 E.03661
G1 X108.957 Y113.587 E1.6345
G1 X108.098 Y113.359 E.02787
G1 X107.592 Y113.088 E.018
G1 X106.929 Y112.449 E.02887
G1 X106.651 Y112.033 E.01569
G1 X106.327 Y110.959 E.03517
G1 X106.327 Y88.761 E.696
G1 X106.555 Y87.903 E.02784
G1 X106.57 Y87.874 E.00102
M204 S1000
G1 X106.57 Y87.874 F10800
G1 X106.912 Y88.025
M204 S800
G1 F1200
G1 X107.143 Y87.6 E.01517
G1 X107.719 Y87.012 E.02581
G1 X108.064 Y86.785 E.01295
M73 Q3 S28
G1 X108.982 Y86.508 E.03007
G1 X161.076 Y86.512 E1.63337
G1 X161.857 Y86.706 E.02523
M73 P4 R28
M73 Q4 S28
G1 X162.544 Y87.124 E.02521
G1 X165.572 Y90.151 E.13424
G1 X166.012 Y90.866 E.02632
G1 X166.206 Y91.658 E.02557
G1 X166.143 Y108.46 E.52682
G1 X165.914 Y109.065 E.02028
G1 X165.566 Y109.572 E.01928
G1 X162.565 Y112.573 E.13307
G1 X162.025 Y112.937 E.02042
G1 X161.061 Y113.21 E.03141
G1 X108.983 Y113.21 E1.63287
G1 X108.22 Y113.001 E.0248
G1 X107.796 Y112.77 E.01514
G1 X107.208 Y112.195 E.02579
G1 X106.981 Y111.849 E.01297
G1 X106.704 Y110.931 E.03007
G1 X106.704 Y88.787 E.69431
G1 X106.896 Y88.083 E.02288
M204 S1000
G1 X106.896 Y88.083 F10800
G1 X107.259 Y88.185
M204 S800
G1 F1200
G1 X107.269 Y88.15 E.00114
G1 X107.459 Y87.808 E.01227
G1 X107.97 Y87.294 E.02273
G1 X108.245 Y87.117 E.01025
G1 X109.01 Y86.885 E.02506
G1 X161.053 Y86.889 E1.63177
G1 X161.689 Y87.045 E.02053
G1 X162.294 Y87.407 E.02211
G1 X165.29 Y90.403 E.13285
G1 X165.654 Y90.988 E.0216
G1 X165.829 Y91.681 E.02241
G1 X165.778 Y108.361 E.52299
G1 X165.588 Y108.874 E.01715
G1 X165.287 Y109.318 E.01682
G1 X162.312 Y112.293 E.13192
G1 X161.841 Y112.607 E.01775
G1 X161.036 Y112.833 E.02622
G1 X109.009 Y112.833 E1.63127
G1 X108.346 Y112.645 E.02161
G1 X108.003 Y112.455 E.01229
G1 X107.489 Y111.943 E.02275
G1 X107.313 Y111.668 E.01024
G1 X107.081 Y110.904 E.02503
G1 X107.081 Y88.814 E.69262
G1 X107.242 Y88.243 E.0186
M204 S1000
G1 X107.242 Y88.243 F10800
G1 X107.63 Y88.391
M204 S800
G1 F1200
G1 X107.772 Y88.019 E.01248
G1 X108.423 Y87.45 E.02711
G1 X109.038 Y87.262 E.02016
G1 X161.029 Y87.266 E1.63014
G1 X161.568 Y87.403 E.01744
G1 X162.044 Y87.69 E.01743
G1 X165.007 Y90.653 E.13138
G1 X165.317 Y91.159 E.01861
G1 X165.452 Y91.703 E.01757
G1 X165.412 Y108.265 E.51929
G1 X165.261 Y108.685 E.01399
G1 X165.007 Y109.065 E.01433
G1 X162.059 Y112.013 E.13072
G1 X161.659 Y112.275 E.01499
G1 X161.01 Y112.456 E.02113
G1 X109.038 Y112.456 E1.62955
G1 X108.214 Y112.141 E.02766
M73 P5 R28
M73 Q5 S28
G1 X107.646 Y111.49 E.02709
G1 X107.458 Y110.875 E.02016
G1 X107.458 Y88.842 E.69083
G1 X107.609 Y88.447 E.01326
M204 S1000
G1 X107.609 Y88.447 F10800
G1 X107.949 Y88.579
M204 S800
G1 F1200
G1 X108.083 Y88.234 E.0116
G1 X108.464 Y87.865 E.01663
G1 X109.067 Y87.639 E.02019
G1 X161.006 Y87.643 E1.62851
G1 X161.401 Y87.742 E.01277
G1 X161.795 Y87.974 E.01434
G1 X164.726 Y90.905 E.12997
G1 X164.96 Y91.282 E.01391
G1 X165.074 Y91.727 E.0144
G1 X165.045 Y108.172 E.51562
G1 X164.932 Y108.499 E.01085
G1 X164.726 Y108.813 E.01177
G1 X161.807 Y111.731 E.12941
G1 X161.48 Y111.942 E.0122
G1 X160.985 Y112.079 E.0161
G1 X109.067 Y112.079 E1.62785
G1 X108.61 Y111.938 E.015
G1 X108.061 Y111.45 E.02303
G1 X107.835 Y110.847 E.02019
G1 X107.835 Y88.871 E.68904
G1 X107.927 Y88.635 E.00794
M204 S1000
G1 X107.927 Y88.635 F10800
G1 X108.265 Y88.768
M204 S800
G1 F1200
G1 X108.388 Y88.456 E.01052
G1 X108.737 Y88.135 E.01487
G1 X109.099 Y88.016 E.01195
G1 X160.984 Y88.02 E1.62682
G1 X161.547 Y88.259 E.01918
G1 X164.445 Y91.157 E.1285
G1 X164.697 Y91.753 E.02029
G1 X164.679 Y108.079 E.51189
G1 X164.446 Y108.559 E.01673
G1 X161.556 Y111.449 E.12815
G1 X161.304 Y111.608 E.00934
G1 X160.96 Y111.702 E.01118
G1 X109.099 Y111.702 E1.62607
G1 X108.652 Y111.525 E.01507
M73 P6 R28
M73 Q6 S28
G1 X108.331 Y111.176 E.01487
G1 X108.212 Y110.815 E.01192
G1 X108.212 Y88.903 E.68704
G1 X108.243 Y88.824 E.00266
M204 S1000
G1 X108.243 Y88.824 F10800
G1 X108.589 Y88.938
M204 S800
G1 F1200
G1 X108.687 Y88.687 E.00845
G1 X108.921 Y88.47 E.01001
G1 X109.134 Y88.393 E.0071
G1 X161.081 Y88.426 E1.62876
G1 X161.3 Y88.546 E.00783
G1 X164.165 Y91.41 E.12702
G1 X164.32 Y91.782 E.01264
G1 X164.311 Y107.992 E.50825
G1 X164.252 Y108.171 E.00591
G1 X161.303 Y111.169 E.13185
G1 X160.932 Y111.325 E.01262
G1 X109.134 Y111.325 E1.62409
G1 X108.906 Y111.243 E.0076
G1 X108.665 Y110.993 E.01089
G1 X108.589 Y110.78 E.00709
G1 X108.589 Y88.998 E.68296
M204 S1000
G1 X108.589 Y88.998 F10800
G1 X108.966 Y88.998
M204 S800
G1 F1200
G1 X108.966 Y88.98 E.00056
G1 X109.106 Y88.799 E.00717
G1 X160.939 Y88.776 E1.62519
G1 X163.886 Y91.665 E.1294
G1 X163.943 Y91.815 E.00503
G1 X163.943 Y107.903 E.50443
G1 X163.886 Y108.053 E.00503
G1 X161.024 Y110.907 E.12673
G1 X109.176 Y110.947 E1.62566
G1 X108.995 Y110.807 E.00717
M73 P6 R27
G1 X108.966 Y89.058 E.68193
M204 S1000
;WIPE_START
G1 F8640
G1 X108.966 Y88.998 E-.01385
G1 X108.966 Y88.98 E-.00416
G1 X109.106 Y88.799 E-.05284
G1 X112.264 Y88.798 E-.72915
;WIPE_END
G1 Z.6 F720
; printing object Motor Bracket Insert for N20 coaxial with servo.STL id:0 copy 0
G1 X141.309 Y103.5 F10800
G1 Z.2 F720
G1 E.8 F2100
M204 S800
;TYPE:External perimeter
;WIDTH:0.419999
G1 F1200
G1 X141.315 Y103.468 E.00102
G1 X141.503 Y103.154 E.01147
G1 X141.789 Y102.918 E.01163
G1 X142.18 Y102.789 E.01291
G1 X142.673 Y102.833 E.01552
G1 X142.995 Y103.007 E.01148
G1 X143.241 Y103.279 E.0115
G1 X143.382 Y103.617 E.01148
G1 X143.402 Y103.983 E.01149
G1 X143.3 Y104.334 E.01146
G1 X143.067 Y104.645 E.01218
G1 X142.785 Y104.84 E.01075
G1 X142.432 Y104.937 E.01148
G1 X142.066 Y104.911 E.0115
G1 X141.731 Y104.765 E.01146
G1 X141.463 Y104.515 E.01149
G1 X141.294 Y104.19 E.01149
G1 X141.243 Y103.827 E.01149
G1 X141.297 Y103.559 E.00857
M204 S1000
;WIPE_START
G1 F8640
G1 X141.309 Y103.5 E-.0139
G1 X141.315 Y103.468 E-.00752
G1 X141.503 Y103.154 E-.08451
G1 X141.789 Y102.918 E-.08562
G1 X142.18 Y102.789 E-.09507
G1 X142.673 Y102.833 E-.11429
G1 X142.995 Y103.007 E-.08451
G1 X143.241 Y103.279 E-.08468
G1 X143.382 Y103.617 E-.08456
G1 X143.402 Y103.983 E-.08464
G1 X143.328 Y104.235 E-.0607
;WIPE_END
G1 Z.6 F720
G1 X149.784 Y104.056 F10800
G1 Z.2 F720
M73 P7 R27
G1 E.8 F2100
M204 S800
;TYPE:Perimeter
;WIDTH:0.62662
G1 F1200
M73 Q7 S28
G1 X149.783 Y103.664 E.01903
M204 S1000
;WIPE_START
G1 F8640
G1 X149.784 Y104.056 E-.09051
G1 X149.783 Y103.664 E-.09051
;WIPE_END
G1 E-.61898 F2100
G1 Z.6 F720
G1 X143.877 Y103.994 F10800
G1 Z.2 F720
G1 E.8 F2100
M204 S800
;WIDTH:0.647314
G1 F1200
G1 X143.871 Y103.575 E.02106
M204 S1000
;WIPE_START
G1 F8640
G1 X143.877 Y103.994 E-.09676
G1 X143.871 Y103.575 E-.09676
;WIPE_END
G1 E-.60648 F2100
G1 Z.6 F720
G1 X145.822 Y101.181 F10800
G1 Z.2 F720
G1 E.8 F2100
M204 S800
;WIDTH:0.419999
G1 F1200
G1 X146.331 Y101.044 E.01653
G1 X146.752 Y100.999 E.01328
G1 X147.237 Y101.027 E.01523
G1 X147.709 Y101.138 E.0152
G1 X148.294 Y101.411 E.02024
G1 X148.565 Y101.587 E.01013
G1 X148.924 Y101.914 E.01523
G1 X149.223 Y102.297 E.01523
G1 X149.452 Y102.724 E.01519
G1 X149.612 Y103.22 E.01634
;WIDTH:0.461234
G1 X149.647 Y103.309 E.00333
;WIDTH:0.502469
G1 X149.681 Y103.398 E.00364
;WIDTH:0.543703
G1 X149.715 Y103.487 E.00397
;WIDTH:0.584938
G1 X149.749 Y103.575 E.00425
;WIDTH:0.626172
G1 X149.783 Y103.664 E.00462
G1 X149.841 Y103.558 E.00586
;WIDTH:0.584938
G1 X149.898 Y103.452 E.00542
;WIDTH:0.543703
G1 X149.955 Y103.346 E.00501
;WIDTH:0.502469
G1 X150.013 Y103.239 E.00465
;WIDTH:0.461234
G1 X150.07 Y103.133 E.00419
;WIDTH:0.419999
G1 X150.254 Y102.871 E.01004
G1 X150.63 Y102.576 E.01498
G1 X151.116 Y102.414 E.01606
G1 X151.62 Y102.436 E.01582
G1 X151.843 Y102.496 E.00724
G1 X152.268 Y102.746 E.01546
G1 X152.584 Y103.124 E.01545
G1 X152.758 Y103.585 E.01545
G1 X152.767 Y104.078 E.01546
G1 X152.612 Y104.545 E.01543
G1 X152.31 Y104.935 E.01547
G1 X151.895 Y105.201 E.01546
G1 X151.416 Y105.314 E.01543
G1 X150.926 Y105.261 E.01545
G1 X150.482 Y105.048 E.01544
G1 X150.134 Y104.698 E.01548
;WIDTH:0.466459
G1 X150.005 Y104.48 E.00892
;WIDTH:0.512919
G1 X149.876 Y104.261 E.00993
;WIDTH:0.55082
G1 X149.845 Y104.193 E.00316
;WIDTH:0.58872
G1 X149.815 Y104.125 E.00337
;WIDTH:0.62662
G1 X149.784 Y104.056 E.00367
G1 X149.748 Y104.152 E.00498
;WIDTH:0.585296
G1 X149.713 Y104.247 E.00457
;WIDTH:0.543972
G1 X149.677 Y104.343 E.00427
;WIDTH:0.502648
G1 X149.642 Y104.438 E.00387
;WIDTH:0.461324
G1 X149.606 Y104.533 E.00353
;WIDTH:0.419999
G1 X149.438 Y105.03 E.01645
G1 X149.169 Y105.501 E.01701
G1 X148.858 Y105.873 E.0152
G1 X148.488 Y106.188 E.01524
G1 X148.071 Y106.435 E.0152
G1 X147.618 Y106.608 E.0152
G1 X147.142 Y106.703 E.01522
G1 X146.656 Y106.715 E.01524
G1 X146.176 Y106.645 E.01521
G1 X145.715 Y106.496 E.01519
G1 X145.285 Y106.27 E.01523
G1 X144.788 Y105.858 E.02024
G1 X144.57 Y105.619 E.01014
G1 X144.295 Y105.191 E.01595
G1 X144.075 Y104.625 E.01904
;WIDTH:0.465467
G1 X144.021 Y104.45 E.00643
;WIDTH:0.510934
G1 X143.967 Y104.276 E.00709
