; generated by PrusaSlicer 2.8.1+win64 on 2024-11-10 at 22:48:47 UTC


;
;
; 

; external perimeters extrusion width = 0.45mm
; perimeters extrusion width = 0.45mm
; infill extrusion width = 0.45mm
; solid infill extrusion width = 0.45mm
; top infill extrusion width = 0.40mm
; support material extrusion width = 0.35mm
; first layer extrusion width = 0.42mm

; external perimeters extrusion width = 0.45mm
; perimeters extrusion width = 0.45mm
; infill extrusion width = 0.45mm
; solid infill extrusion width = 0.45mm
; top infill extrusion width = 0.40mm
; support material extrusion width = 0.35mm
; first layer extrusion width = 0.42mm

; external perimeters extrusion width = 0.45mm
; perimeters extrusion width = 0.45mm
; infill extrusion width = 0.45mm
; solid infill extrusion width = 0.45mm
; top infill extrusion width = 0.40mm
; support material extrusion width = 0.35mm
; first layer extrusion width = 0.42mm

; external perimeters extrusion width = 0.45mm
; perimeters extrusion width = 0.45mm
; infill extrusion width = 0.45mm
; solid infill extrusion width = 0.45mm
; top infill extrusion width = 0.40mm
; support material extrusion width = 0.35mm
; first layer extrusion width = 0.42mm

M73 P0 R118
M73 Q0 S118
M201 X1000 Y1000 Z200 E5000 ; sets maximum accelerations, mm/sec^2
M203 X200 Y200 Z12 E120 ; sets maximum feedrates, mm / sec
M204 S1250 T1250 ; sets acceleration (S) and retract acceleration (R), mm/sec^2
M205 X8.00 Y8.00 Z0.40 E4.50 ; sets the jerk limits, mm/sec
M205 S0 T0 ; sets the minimum extruding and travel feed rate, mm/sec

; printing object Motor Bracket Insert for N20 coaxial with servo.STL id:0 copy 0
; stop printing object Motor Bracket Insert for N20 coaxial with servo.STL id:0 copy 0
; printing object Motor Bracket Insert for N20 coaxial with servo.STL id:3 copy 0
; stop printing object Motor Bracket Insert for N20 coaxial with servo.STL id:3 copy 0
; printing object Motor Bracket Insert for N20 coaxial with servo.STL id:1 copy 0
; stop printing object Motor Bracket Insert for N20 coaxial with servo.STL id:1 copy 0
; printing object Motor Bracket Insert for N20 coaxial with servo.STL id:2 copy 0
; stop printing object Motor Bracket Insert for N20 coaxial with servo.STL id:2 copy 0

;TYPE:Custom
M862.3 P "MK3S" ; printer model check
M862.1 P0.4 ; nozzle diameter check
M115 U3.14.0 ; tell printer latest fw version
G90 ; use absolute coordinates
M83 ; extruder relative mode
M104 S215 ; set extruder temp
M140 S60 ; set bed temp
M190 S60 ; wait for bed temp
M109 S215 ; wait for extruder temp
G28 W ; home all without mesh bed level
G80 X36.625 Y81.5819 W135.182 H66.0644 ; mesh bed levelling

G1 Z0.2 F720
G1 Y-3 F1000 ; go outside print area
G92 E0
G1 X60 E9 F1000 ; intro line
G1 X100 E12.5 F1000 ; intro line

G92 E0
M221 S95

; Don't change E values below. Excessive value can damage the printer.
M907 E430 ; set extruder motor current
G21 ; set units to millimeters
G90 ; use absolute coordinates
M83 ; use relative distances for extrusion

M900 K0.05 ; Filament gcode LA 1.5
M900 K30 ; Filament gcode LA 1.0




M107
;LAYER_CHANGE
;Z:0.2
;HEIGHT:0.2
G1 E-.8 F2100
G1 Z.6 F720
G1 X40.442 Y83.027 F10800
G1 Z.2 F720
G1 E.8 F2100
M204 S800
;TYPE:Skirt/Brim
;WIDTH:0.42
G1 F1200
G1 X41.969 Y82.386 E.05193
G1 X107.122 Y81.77 E2.04292
G1 X161.886 Y81.77 E1.71709
M73 P0 R117
G1 X162.724 Y81.937 E.02679
G1 X164.598 Y82.713 E.0636
G1 X165.308 Y83.188 E.02678
G1 X169.526 Y87.405 E.18701
G1 X170 Y88.115 E.02677
G1 X170.777 Y89.99 E.06364
G1 X170.943 Y90.777 E.02522
G1 X171.617 Y120.288 E.92554
G1 X171.618 Y138.401 E.56792
G1 X171.451 Y139.238 E.02676
G1 X170.675 Y141.113 E.06363
G1 X170.201 Y141.823 E.02677
G1 X165.983 Y146.04 E.18701
G1 X165.273 Y146.515 E.02678
G1 X163.399 Y147.291 E.0636
G1 X162.561 Y147.458 E.02679
G1 X107.817 Y147.458 E1.71646
G1 X42.54 Y145.988 E2.04723
G1 X41.042 Y145.348 E.05108
G1 X38.055 Y142.36 E.13247
G1 X37.414 Y140.86 E.05115
G1 X36.814 Y113.435 E.8601
G1 X36.814 Y87.562 E.81123
G1 X37.455 Y86.015 E.0525
G1 X40.4 Y83.07 E.13059
M204 S1000
;WIPE_START
G1 F8640
G1 X40.442 Y83.027 E-.01388
G1 X41.969 Y82.386 E-.38239
G1 X43.717 Y82.369 E-.40373
;WIPE_END
G1 Z.6 F720
G1 X104.441 Y88.641 F10800
G1 Z.2 F720
G1 E.8 F2100
M204 S800
G1 F1200
G1 X104.756 Y87.329 E.04231
G1 X105.306 Y86.278 E.03719
G1 X106.167 Y85.362 E.03942
G1 X106.937 Y84.817 E.02958
G1 X108.816 Y84.245 E.06158
G1 X161.21 Y84.249 E1.64278
G1 X162.604 Y84.567 E.04483
G1 X163.855 Y85.278 E.04512
G1 X167.262 Y88.642 E.15012
G1 X168.075 Y89.936 E.04792
G1 X168.458 Y91.439 E.04863
G1 X168.341 Y109.029 E.55153
G1 X167.914 Y110.123 E.03682
G1 X167.261 Y111.073 E.03614
G1 X163.909 Y114.429 E.14872
G1 X164.644 Y114.876 E.02697
G1 X167.963 Y118.184 E.14693
G1 X168.748 Y119.44 E.04644
G1 X169.126 Y120.897 E.0472
G1 X169.042 Y138.387 E.54839
G1 X168.613 Y139.586 E.03993
G1 X167.914 Y140.609 E.03885
G1 X164.682 Y143.827 E.143
G1 X163.658 Y144.497 E.03837
G1 X161.894 Y144.983 E.05737
G1 X109.512 Y144.983 E1.6424
G1 X108.199 Y144.668 E.04234
G1 X107.148 Y144.117 E.03721
G1 X106.232 Y143.257 E.03939
G1 X105.688 Y142.487 E.02956
G1 X105.116 Y140.608 E.06158
G1 X105.116 Y118.152 E.70409
G1 X105.446 Y116.798 E.0437
G1 X105.951 Y115.83 E.03423
G1 X106.874 Y114.844 E.04235
G1 X106.519 Y114.64 E.01284
G1 X105.502 Y113.682 E.04381
G1 X104.958 Y112.864 E.0308
G1 X104.441 Y111.097 E.05773
G1 X104.441 Y88.701 E.70221
M204 S1000
G1 X104.441 Y88.701 F10800
G1 X104.818 Y88.701
M204 S800
G1 F1200
G1 X104.818 Y88.664 E.00116
G1 X105.117 Y87.44 E.03951
G1 X105.599 Y86.517 E.03265
G1 X106.428 Y85.634 E.03798
G1 X107.128 Y85.143 E.02681
G1 X108.844 Y84.623 E.05622
G1 X161.189 Y84.626 E1.64124
G1 X162.491 Y84.928 E.04191
G1 X163.645 Y85.592 E.04174
G1 X166.981 Y88.894 E.14717
G1 X167.739 Y90.11 E.04493
G1 X168.086 Y91.506 E.0451
G1 X167.973 Y108.945 E.5468
G1 X167.572 Y109.964 E.03433
G1 X166.961 Y110.844 E.03359
G1 X163.835 Y113.97 E.13861
G1 X163.176 Y114.433 E.02525
G1 X164.395 Y115.16 E.0445
G1 X167.656 Y118.404 E.14422
G1 X168.39 Y119.564 E.04304
G1 X168.755 Y120.968 E.04548
G1 X168.665 Y138.351 E.54504
G1 X168.268 Y139.433 E.03614
G1 X167.636 Y140.354 E.03502
G1 X164.457 Y143.524 E.14076
G1 X163.527 Y144.142 E.03501
G1 X161.868 Y144.606 E.05401
G1 X109.535 Y144.606 E1.64086
G1 X108.311 Y144.307 E.03951
G1 X107.387 Y143.825 E.03268
G1 X106.505 Y142.996 E.03795
G1 X106.014 Y142.296 E.02681
G1 X105.493 Y140.58 E.05623
G1 X105.493 Y118.174 E.70252
G1 X105.792 Y116.95 E.03951
G1 X106.244 Y116.068 E.03107
G1 X107.135 Y115.117 E.04086
G1 X107.595 Y114.791 E.01768
G1 X106.757 Y114.346 E.02975
G1 X105.777 Y113.423 E.04221
G1 X105.288 Y112.68 E.02789
G1 X104.818 Y111.07 E.05259
G1 X104.818 Y88.761 E.69948
M204 S1000
G1 X104.818 Y88.761 F10800
G1 X105.195 Y88.761
M204 S800
G1 F1200
G1 X105.195 Y88.687 E.00232
G1 X105.477 Y87.553 E.03664
G1 X105.892 Y86.756 E.02817
G1 X106.689 Y85.907 E.03651
G1 X107.319 Y85.47 E.02404
G1 X108.872 Y85 E.05087
G1 X161.166 Y85.003 E1.63964
G1 X162.376 Y85.288 E.03898
M73 Q0 S117
G1 X163.434 Y85.905 E.0384
G1 X166.7 Y89.146 E.14427
G1 X167.403 Y90.282 E.04189
G1 X167.715 Y91.572 E.04161
G1 X167.607 Y108.854 E.54188
G1 X167.229 Y109.804 E.03206
G1 X166.682 Y110.589 E.03
G1 X163.581 Y113.691 E.13753
G1 X162.77 Y114.254 E.03095
G1 X162.439 Y114.365 E.01095
G1 X162.45 Y114.648 E.00888
G1 X163.05 Y114.798 E.01939
G1 X164.147 Y115.444 E.03992
G1 X167.375 Y118.656 E.14278
G1 X168.055 Y119.739 E.0401
G1 X168.384 Y121.037 E.04198
G1 X168.288 Y138.314 E.54172
G1 X167.924 Y139.277 E.03228
G1 X167.357 Y140.1 E.03134
G1 X164.23 Y143.222 E.13855
G1 X163.394 Y143.788 E.03165
G1 X161.841 Y144.228 E.05061
G1 X109.558 Y144.228 E1.6393
G1 X108.424 Y143.947 E.03663
G1 X107.627 Y143.532 E.02817
G1 X106.778 Y142.735 E.03651
G1 X106.34 Y142.105 E.02406
G1 X105.87 Y140.552 E.05087
G1 X105.87 Y118.198 E.70089
G1 X106.152 Y117.063 E.03667
G1 X106.566 Y116.267 E.02813
G1 X107.394 Y115.391 E.03779
G1 X107.996 Y114.978 E.02289
G1 X108.332 Y114.863 E.01114
G1 X108.322 Y114.583 E.00878
G1 X107.71 Y114.422 E.01984
G1 X106.994 Y114.052 E.02527
G1 X106.077 Y113.194 E.03937
G1 X105.641 Y112.544 E.02454
G1 X105.195 Y111.043 E.0491
G1 X105.195 Y88.821 E.69676
M204 S1000
;WIPE_START
G1 F8640
G1 X105.195 Y88.761 E-.01385
G1 X105.195 Y88.687 E-.01709
G1 X105.477 Y87.553 E-.26982
G1 X105.892 Y86.756 E-.20748
G1 X106.689 Y85.907 E-.26888
G1 X106.77 Y85.851 E-.02288
;WIPE_END
G1 Z.6 F720
G1 X109.574 Y114.887 F10800
G1 Z.2 F720
G1 E.8 F2100
M204 S800
G1 F1200
G1 X161.82 Y114.891 E1.63814
G1 X162.886 Y115.139 E.03432
G1 X163.898 Y115.729 E.03673
G1 X167.093 Y118.908 E.14132
G1 X167.719 Y119.912 E.0371
G1 X168.012 Y121.104 E.03849
G1 X167.911 Y138.276 E.53843
G1 X167.581 Y139.118 E.02836
G1 X167.078 Y139.845 E.02772
G1 X164.001 Y142.922 E.13644
G1 X163.259 Y143.435 E.02828
G1 X161.814 Y143.851 E.04715
G1 X109.582 Y143.851 E1.6377
G1 X108.538 Y143.587 E.03376
M73 P1 R116
M73 Q1 S117
G1 X107.866 Y143.239 E.02373
G1 X107.051 Y142.474 E.03505
G1 X106.668 Y141.916 E.02122
G1 X106.247 Y140.525 E.04557
G1 X106.247 Y118.222 E.69929
G1 X106.512 Y117.177 E.0338
G1 X106.859 Y116.505 E.02371
G1 X107.625 Y115.691 E.03505
G1 X108.182 Y115.308 E.02119
G1 X109.517 Y114.904 E.04373
M204 S1000
G1 X109.517 Y114.904 F10800
G1 X109.602 Y115.264
M204 S800
G1 F1200
G1 X161.797 Y115.268 E1.63654
G1 X162.77 Y115.499 E.03136
G1 X163.685 Y116.041 E.03334
G1 X166.811 Y119.159 E.13843
G1 X167.382 Y120.084 E.03408
G1 X167.635 Y121.125 E.03359
G1 X167.547 Y138.173 E.53454
G1 X167.258 Y138.924 E.02523
G1 X166.799 Y139.591 E.02539
G1 X163.747 Y142.643 E.13533
G1 X163.071 Y143.106 E.02569
G1 X161.788 Y143.474 E.04185
G1 X109.606 Y143.474 E1.63613
G1 X108.654 Y143.227 E.03084
G1 X108.065 Y142.918 E.02085
G1 X107.326 Y142.216 E.03196
G1 X106.996 Y141.729 E.01844
G1 X106.624 Y140.497 E.04035
G1 X106.624 Y118.246 E.69766
G1 X106.871 Y117.294 E.03084
G1 X107.18 Y116.704 E.02088
G1 X107.883 Y115.966 E.03196
G1 X108.37 Y115.636 E.01844
G1 X109.544 Y115.281 E.03846
M204 S1000
G1 X109.544 Y115.281 F10800
G1 X109.629 Y115.641
M204 S800
G1 F1200
G1 X161.774 Y115.645 E1.63497
G1 X162.652 Y115.858 E.02833
G1 X163.47 Y116.351 E.02995
G1 X166.529 Y119.411 E.13566
G1 X167.024 Y120.204 E.02931
G1 X167.258 Y121.147 E.03046
G1 X167.182 Y138.072 E.53068
G1 X166.933 Y138.731 E.02209
G1 X166.52 Y139.337 E.02299
G1 X163.493 Y142.363 E.1342
G1 X162.885 Y142.777 E.02306
G1 X161.762 Y143.097 E.03661
G1 X109.632 Y143.097 E1.6345
G1 X108.773 Y142.869 E.02787
G1 X108.266 Y142.599 E.01801
G1 X107.604 Y141.959 E.02887
G1 X107.326 Y141.543 E.01569
G1 X107.001 Y140.469 E.03518
G1 X107.001 Y118.271 E.696
G1 X107.23 Y117.413 E.02784
G1 X107.5 Y116.906 E.01801
G1 X108.139 Y116.243 E.02887
G1 X108.555 Y115.965 E.01569
G1 X109.572 Y115.658 E.03331
M204 S1000
G1 X109.572 Y115.658 F10800
G1 X109.657 Y116.018
M204 S800
G1 F1200
G1 X161.751 Y116.022 E1.63337
G1 X162.532 Y116.216 E.02523
G1 X163.219 Y116.634 E.02521
G1 X166.247 Y119.661 E.13424
G1 X166.687 Y120.376 E.02632
G1 X166.881 Y121.168 E.02557
G1 X166.818 Y137.97 E.52682
G1 X166.588 Y138.576 E.02032
G1 X166.241 Y139.082 E.01924
G1 X163.24 Y142.084 E.13309
G1 X162.699 Y142.448 E.02044
G1 X161.736 Y142.72 E.03138
G1 X109.657 Y142.72 E1.6329
G1 X108.895 Y142.512 E.02477
G1 X108.471 Y142.281 E.01514
G1 X107.883 Y141.705 E.02581
G1 X107.656 Y141.36 E.01295
G1 X107.379 Y140.442 E.03007
G1 X107.379 Y118.297 E.69434
G1 X107.587 Y117.535 E.02477
G1 X107.818 Y117.11 E.01517
G1 X108.394 Y116.522 E.02581
G1 X108.739 Y116.296 E.01293
G1 X109.6 Y116.035 E.02821
M204 S1000
G1 X109.6 Y116.035 F10800
G1 X109.685 Y116.395
M204 S800
G1 F1200
G1 X161.728 Y116.399 E1.63177
G1 X162.364 Y116.555 E.02053
G1 X162.969 Y116.917 E.02211
G1 X165.965 Y119.913 E.13285
G1 X166.329 Y120.498 E.0216
G1 X166.504 Y121.191 E.02241
G1 X166.453 Y137.871 E.52299
G1 X166.263 Y138.384 E.01715
G1 X165.962 Y138.829 E.01684
G1 X162.987 Y141.803 E.13189
G1 X162.516 Y142.117 E.01775
G1 X161.71 Y142.343 E.02625
G1 X109.684 Y142.343 E1.63124
G1 X109.021 Y142.155 E.02161
G1 X108.678 Y141.965 E.01229
G1 X108.164 Y141.454 E.02273
G1 X107.987 Y141.179 E.01025
G1 X107.756 Y140.414 E.02506
G1 X107.756 Y118.324 E.69262
G1 X107.943 Y117.66 E.02163
G1 X108.134 Y117.318 E.01228
G1 X108.645 Y116.804 E.02273
G1 X108.92 Y116.627 E.01025
G1 X109.628 Y116.413 E.02319
M204 S1000
G1 X109.628 Y116.413 F10800
G1 X109.713 Y116.772
M204 S800
G1 F1200
G1 X161.704 Y116.776 E1.63014
G1 X162.243 Y116.913 E.01744
G1 X162.719 Y117.2 E.01743
G1 X165.682 Y120.164 E.13141
G1 X165.992 Y120.669 E.01858
G1 X166.126 Y121.213 E.01757
G1 X166.087 Y137.775 E.51929
G1 X165.936 Y138.195 E.01399
G1 X165.681 Y138.576 E.01437
G1 X162.734 Y141.523 E.13067
G1 X162.334 Y141.786 E.01501
G1 X161.685 Y141.966 E.02112
G1 X109.712 Y141.966 E1.62958
G1 X108.889 Y141.651 E.02763
M73 Q1 S116
G1 X108.32 Y141 E.02711
G1 X108.133 Y140.386 E.02012
G1 X108.133 Y118.352 E.69086
G1 X108.447 Y117.529 E.02762
G1 X109.098 Y116.96 E.02711
G1 X109.656 Y116.79 E.01829
M204 S1000
G1 X109.656 Y116.79 F10800
G1 X109.742 Y117.149
M204 S800
G1 F1200
G1 X161.681 Y117.153 E1.62851
G1 X162.076 Y117.252 E.01277
G1 X162.469 Y117.484 E.01431
G1 X165.401 Y120.415 E.12999
G1 X165.634 Y120.792 E.0139
G1 X165.749 Y121.238 E.01444
G1 X165.72 Y137.682 E.51559
G1 X165.607 Y138.009 E.01085
G1 X165.401 Y138.323 E.01177
G1 X162.482 Y141.241 E.12941
G1 X162.155 Y141.453 E.01222
G1 X161.66 Y141.589 E.0161
G1 X109.742 Y141.589 E1.62785
G1 X109.285 Y141.448 E.015
G1 X108.736 Y140.96 E.02303
G1 X108.51 Y140.357 E.02019
G1 X108.51 Y118.382 E.68901
G1 X108.757 Y117.744 E.02145
G1 X109.139 Y117.376 E.01663
G1 X109.686 Y117.17 E.01833
M204 S1000
G1 X109.686 Y117.17 F10800
G1 X109.774 Y117.526
M204 S800
G1 F1200
G1 X161.659 Y117.53 E1.62682
G1 X162.221 Y117.769 E.01915
G1 X165.12 Y120.667 E.12852
G1 X165.372 Y121.264 E.02032
G1 X165.354 Y137.589 E.51186
G1 X165.121 Y138.069 E.01673
G1 X162.231 Y140.959 E.12815
G1 X161.979 Y141.118 E.00934
G1 X161.635 Y141.212 E.01118
G1 X109.774 Y141.212 E1.62607
G1 X109.326 Y141.036 E.01509
G1 X109.006 Y140.686 E.01487
G1 X108.887 Y140.325 E.01192
G1 X108.887 Y118.413 E.68704
G1 X109.063 Y117.966 E.01506
G1 X109.412 Y117.646 E.01485
G1 X109.717 Y117.545 E.01007
M204 S1000
G1 X109.717 Y117.545 F10800
G1 X109.809 Y117.904
M204 S800
G1 F1200
G1 X161.756 Y117.936 E1.62876
G1 X161.975 Y118.056 E.00783
M73 P1 R115
G1 X164.839 Y120.921 E.12702
G1 X164.995 Y121.292 E.01262
G1 X164.986 Y137.502 E.50825
G1 X164.927 Y137.681 E.00591
G1 X161.978 Y140.679 E.13185
G1 X161.606 Y140.835 E.01265
G1 X109.809 Y140.835 E1.62406
G1 X109.581 Y140.753 E.0076
G1 X109.34 Y140.503 E.01089
G1 X109.264 Y140.29 E.00709
G1 X109.264 Y118.448 E.68484
G1 X109.361 Y118.197 E.00844
G1 X109.596 Y117.98 E.01003
G1 X109.752 Y117.924 E.0052
M204 S1000
G1 X109.752 Y117.924 F10800
G1 X109.781 Y118.309
M204 S800
G1 F1200
G1 X161.614 Y118.286 E1.62519
G1 X164.561 Y121.175 E.1294
G1 X164.618 Y121.325 E.00503
G1 X164.618 Y137.413 E.50443
G1 X164.561 Y137.563 E.00503
G1 X161.699 Y140.417 E.12673
G1 X109.851 Y140.458 E1.62566
G1 X109.67 Y140.317 E.00719
M73 P2 R115
M73 Q2 S116
G1 X109.641 Y118.49 E.68437
G1 X109.745 Y118.357 E.00529
M204 S1000
;WIPE_START
G1 F8640
G1 X109.781 Y118.309 E-.01385
G1 X113.186 Y118.308 E-.78615
;WIPE_END
G1 Z.6 F720
G1 X109.745 Y114.341 F10800
G1 Z.2 F720
G1 E.8 F2100
M204 S800
G1 F1200
G1 X108.907 Y114.341 E.02627
G1 X107.863 Y114.076 E.03377
G1 X107.191 Y113.729 E.02371
G1 X106.376 Y112.964 E.03505
G1 X105.993 Y112.406 E.02122
G1 X105.572 Y111.014 E.0456
G1 X105.572 Y88.711 E.69929
G1 X105.837 Y87.667 E.03377
G1 X106.185 Y86.995 E.02373
G1 X106.95 Y86.18 E.03505
G1 X107.508 Y85.797 E.02122
G1 X108.899 Y85.377 E.04556
G1 X161.145 Y85.38 E1.63814
G1 X162.211 Y85.629 E.03432
G1 X163.223 Y86.219 E.03673
G1 X166.418 Y89.398 E.14132
G1 X167.044 Y90.402 E.0371
G1 X167.337 Y91.593 E.03846
G1 X167.236 Y108.766 E.53846
G1 X166.906 Y109.608 E.02836
G1 X166.404 Y110.335 E.0277
G1 X163.326 Y113.412 E.13646
G1 X162.584 Y113.924 E.02827
G1 X161.139 Y114.341 E.04716
G1 X109.805 Y114.341 E1.60954
M204 S1000
